images_sukapura_svg/cmd/sc_sidebar.svg

<svg viewBox="0 0 16 16" xmlns="http://www.w3.org/2000/svg" xmlns:xlink="http://www.w3.org/1999/xlink"><linearGradient id="a" gradientUnits="userSpaceOnUse" x1="14.000204" x2="6.863535" y1="7.003366" y2="6.658522"><stop offset="0" stop-color="#0040dd"/><stop offset="1" stop-color="#0a84ff"/></linearGradient>







     /&amp;amp;gt;
 <path d="m2 14v-8h13v8z" fill="#fff"/><path d="m2 1c-.554 0-1 .446-1 1v12c0 .554.446 1 1 1h13c.554 0 1-.446 1-1v-12c0-.554-.446-1-1-1zm8.505859.9921875c.01495 0 .02993.0074.04492.00781h4.449221v5.3144531c.0044.036122.01383.070143.01563.1074219.0036.074185-.0061.1507026-.01563.2265625v6.351565h-13v-12h8.460938c.01499-.0004127.02998-.00781.04492-.00781z" fill="#69696e"/><path d="m2 2h13v4h-13z" fill="#c8c8cb"/><path d="m10 6h1v8h-1z" fill="#69696e"/><path d="m5-15h1v13h-1z" fill="#69696e" transform="rotate(90)"/><path d="m11 6v.5507812l.550781-.5507812zm1.964844 0-1.964844 1.9648438v1.4140624l3.267578-3.2675781-.111328-.1113281zm2.009765.8183594-3.974609 3.9746096v1.414062l4-3.9999998v-1.3632812zm.025391 2.8027344-4 4.0000002v.378906h1.035156l2.964844-2.964844zm0 2.8281252-1.550781 1.550781h1.414062l.136719-.136719z" fill="#a2a2a7"/><g fill-rule="evenodd" transform="matrix(0 1 -1 0 18.003366 -.000204)"><path d="m10 3.9707031c-.3462712 0-.6017147.054667-.9609375.1894531-.1796114.0673929-.3722321.1501173-.5878906.3320313-.2156586.181914-.4929776.5512318-.4863281 1.0214844l.00391 2.484375c-.0972007-.0081707-.1869927-.0075032-.2773476-.0019531-.9093123-.1146908-1.6527837.5493293-1.6894531 1.4453124-.023511.402805.1383246.8854228.4375 1.1621098l2.9335938 2.929687-.089844-.101562c.2269761.295315.3495655.329708.2050781.201171-.044161-.0393.03364.08854.3242188.234376.3053562.152825.4334982.134769.3105472.103515-.02307-.0059.07887.01094.07813.01367-.000036.000133.0039-.000148.0039 0 .00035.0032.05758.0058.08203.01367-.02954-.0045-.05463-.0053-.07031-.0098.0026.000768.0011.0012.0039.002.02406.0068.05901.0092.107422.01563.06406.01491.0083.02126.144531.02344.000038 0 .01436-.0018.01563-.002.000169.000018.0059 0 .0059 0 .000207-.000018.0017.000019.002 0 .000353.000033.0078.002.0078.002a1.02922 1.02922 0 0 0 .01563 0c.136254-.0022.08047-.0085.144531-.02344.04537-.0057.07881-.0074.101563-.01367.01036-.0029.0069-.0032.01563-.0059.0042-.0012.002-.000781.0059-.002.00035-.0032.106212-.01982.08203-.01367-.123843.03163.0032.04906.308593-.103515.293327-.146478.370251-.273627.326172-.234376-.144475.128526-.02189.09413.205078-.201171l-.08984.101562 2.933593-2.929687c.299176-.276687.461012-.7593048.4375-1.1621098-.03667-.8959833-.78014-1.5600033-1.689453-1.4453124-.08781-.00539-.175229-.00556-.269531.00195l.0039-2.484375c.006396-.4646285-.264734-.8351071-.480588-1.0194582-.215855-.1843511-.410647-.2697883-.591797-.3378906-.362302-.1362047-.617491-.191969-.980469-.1855469z" fill="#fff" fill-opacity=".439834"/><path d="m10 4.9999975c-.252389 0-1.0106399.1619227-1.0058594.5000025l.0058594 3.5h-1.0078125c-.142521-.035651-.2843019-.030036-.4160156-.00195-.2993171-.048164-.582159.2076536-.578125.5039062-.014252.1165566.022927.2368523.140625.3457031l2.9609371 2.9570317c.01933.02515.04899.03788.07227.05859.03308.02944.06224.06435.101563.08399.03201.01602.06866.01653.103515.02539.03735.0095.072.02671.111328.02734.0028.000043.0051-.002.0078-.002.0028.000003.005.002.0078.002.03932-.00063.07398-.01784.111328-.02734.03485-.0089.07151-.0094.103516-.02539.03933-.01964.06849-.05454.101562-.08399.02328-.02071.05294-.03344.07227-.05859l2.960955-2.9570348c.117698-.1088508.154877-.2291465.140625-.3457031.004034-.2962526-.278808-.5520702-.578125-.5039062-.131714-.0280831-.273495-.0336975-.416016.0019531h-1l.0059-3.5c.004803-.3425445-.750228-.5045236-1.0059-.5z" fill="url(#a)"/></g></svg>

<?xml version="1.0" encoding="UTF-8" standalone="no"?>
<svg
   xmlns:dc="http://purl.org/dc/elements/1.1/"
   xmlns:cc="http://creativecommons.org/ns#"
   xmlns:rdf="http://www.w3.org/1999/02/22-rdf-syntax-ns#"
   xmlns:svg="http://www.w3.org/2000/svg"
   xmlns="http://www.w3.org/2000/svg"
   xmlns:sodipodi="http://sodipodi.sourceforge.net/DTD/sodipodi-0.dtd"
   xmlns:inkscape="http://www.inkscape.org/namespaces/inkscape"
   viewBox="0 0 16 16"
   version="1.1"
   id="svg1007"
   sodipodi:docname="sc_sidebar.svg"
   inkscape:version="0.92.3 (2405546, 2018-03-11)"><metadata
   id="metadata1013">
  <rdf:RDF>
    <cc:Work
       rdf:about="">
      <dc:format>image/svg+xml</dc:format>
      <dc:type
         rdf:resource="http://purl.org/dc/dcmitype/StillImage" />
      <dc:title></dc:title>
    </cc:Work>
  </rdf:RDF>
</metadata>
<defs
   id="defs1011" />
<sodipodi:namedview
   pagecolor="#ffffff"
   bordercolor="#666666"
   borderopacity="1"
   objecttolerance="10"
   gridtolerance="10"
   guidetolerance="10"
   inkscape:pageopacity="0"
   inkscape:pageshadow="2"
   inkscape:window-width="1366"
   inkscape:window-height="716"
   id="namedview1009"
   showgrid="true"
   inkscape:zoom="20.85965"
   inkscape:cx="10.181893"
   inkscape:cy="3.7212196"
   inkscape:window-x="-8"
   inkscape:window-y="-8"
   inkscape:window-maximized="1"
   inkscape:current-layer="svg1007">
  <inkscape:grid
     type="xygrid"
     id="grid1569" />
</sodipodi:namedview>
<linearGradient
   id="a"
   gradientUnits="userSpaceOnUse"
   x1="14.000204"
   x2="6.8635354"
   y1="7.003366"
   y2="6.6585221">
  <stop
     offset="0"
     stop-color="#0040dd"
     id="stop986" />
  <stop
     offset="1"
     stop-color="#0a84ff"
     id="stop988" />
</linearGradient>







     /&amp;gt;
 <path
   d="m2 14v-8h13v8z"
   fill="#fff"
   id="path991" />
<path
   d="m2 1c-.554 0-1 .446-1 1v12c0 .554.446 1 1 1h13c.554 0 1-.446 1-1v-12c0-.554-.446-1-1-1zm8.505859.9921875c.01495 0 .02993.0074.04492.00781h4.449221v5.3144531c.0044.036122.01383.070143.01563.1074219.0036.074185-.0061.1507026-.01563.2265625v6.351565h-13v-12h8.460938c.01499-.0004127.02998-.00781.04492-.00781z"
   fill="#69696e"
   id="path993" />
<path
   d="m2 2h13v4h-13z"
   fill="#c8c8cb"
   id="path995" />
<rect
   style="fill:#69696e;fill-opacity:1;stroke:none;stroke-opacity:0.90980392"
   id="rect1571"
   width="1"
   height="8"
   x="10"
   y="6"
   ry="0" />
<rect
   ry="0"
   y="-15"
   x="5"
   height="13"
   width="1"
   id="rect1573"
   style="fill:#69696e;fill-opacity:1;stroke:none;stroke-width:1.27475488;stroke-opacity:0.90980392"
   transform="rotate(90)" />
<path
   style="fill:#a2a2a7;fill-opacity:1;stroke:none;stroke-opacity:0.90980392"
   d="M 11 6 L 11 6.5507812 L 11.550781 6 L 11 6 z M 12.964844 6 L 11 7.9648438 L 11 9.3789062 L 14.267578 6.1113281 L 14.15625 6 L 12.964844 6 z M 14.974609 6.8183594 L 11 10.792969 L 11 12.207031 L 15 8.2070312 L 15 6.84375 L 14.974609 6.8183594 z M 15 9.6210938 L 11 13.621094 L 11 14 L 12.035156 14 L 15 11.035156 L 15 9.6210938 z M 15 12.449219 L 13.449219 14 L 14.863281 14 L 15 13.863281 L 15 12.449219 z "
   id="rect1575" />
<g
   id="g1005"
   transform="rotate(90,9.0017851,9.0015809)"
   style="fill-rule:evenodd">
  <path
     d="m 10,3.9707031 c -0.3462712,0 -0.6017147,0.054667 -0.9609375,0.1894531 C 8.8594511,4.2275491 8.6668304,4.3102735 8.4511719,4.4921875 8.2355133,4.6741015 7.9581943,5.0434193 7.9648438,5.5136719 l 0.00391,2.484375 C 7.8715531,7.9898762 7.7817611,7.9905437 7.6914062,7.9960938 6.7820939,7.881403 6.0386225,8.5454231 6.0019531,9.4414062 c -0.023511,0.402805 0.1383246,0.8854228 0.4375,1.1621098 l 2.9335938,2.929687 -0.089844,-0.101562 c 0.2269761,0.295315 0.3495655,0.329708 0.2050781,0.201171 -0.044161,-0.0393 0.03364,0.08854 0.3242188,0.234376 0.3053562,0.152825 0.4334982,0.134769 0.3105472,0.103515 -0.02307,-0.0059 0.07887,0.01094 0.07813,0.01367 -3.6e-5,1.33e-4 0.0039,-1.48e-4 0.0039,0 3.5e-4,0.0032 0.05758,0.0058 0.08203,0.01367 -0.02954,-0.0045 -0.05463,-0.0053 -0.07031,-0.0098 0.0026,7.68e-4 0.0011,0.0012 0.0039,0.002 0.02406,0.0068 0.05901,0.0092 0.107422,0.01563 0.06406,0.01491 0.0083,0.02126 0.144531,0.02344 3.8e-5,0 0.01436,-0.0018 0.01563,-0.002 1.69e-4,1.8e-5 0.0059,0 0.0059,0 2.07e-4,-1.8e-5 0.0017,1.9e-5 0.002,0 3.53e-4,3.3e-5 0.0078,0.002 0.0078,0.002 a 1.02922,1.02922 0 0 0 0.01563,0 c 0.136254,-0.0022 0.08047,-0.0085 0.144531,-0.02344 0.04537,-0.0057 0.07881,-0.0074 0.101563,-0.01367 0.01036,-0.0029 0.0069,-0.0032 0.01563,-0.0059 0.0042,-0.0012 0.002,-7.81e-4 0.0059,-0.002 3.5e-4,-0.0032 0.106212,-0.01982 0.08203,-0.01367 -0.123843,0.03163 0.0032,0.04906 0.308593,-0.103515 0.293327,-0.146478 0.370251,-0.273627 0.326172,-0.234376 -0.144475,0.128526 -0.02189,0.09413 0.205078,-0.201171 l -0.08984,0.101562 2.933593,-2.929687 c 0.299176,-0.276687 0.461012,-0.7593048 0.4375,-1.1621098 -0.03667,-0.8959833 -0.78014,-1.5600033 -1.689453,-1.4453124 -0.08781,-0.00539 -0.175229,-0.00556 -0.269531,0.00195 l 0.0039,-2.484375 C 13.041672,5.0489703 12.770542,4.6784917 12.554688,4.4941406 12.338833,4.3097895 12.144041,4.2243523 11.962891,4.15625 11.600589,4.0200453 11.3454,3.964281 10.982422,3.9707031 Z"
     id="path1001"
     inkscape:connector-curvature="0"
     style="fill:#ffffff;fill-opacity:0.439834" />
  <path
     d="M 10,4.9999975 C 9.747611,4.9999975 8.9893601,5.1619202 8.9941406,5.5 L 9,9 H 7.9921875 C 7.8496665,8.964349 7.7078856,8.969964 7.5761719,8.99805 7.2768548,8.949886 6.9940129,9.2057036 6.9980469,9.5019562 c -0.014252,0.1165566 0.022927,0.2368523 0.140625,0.3457031 l 2.9609371,2.9570317 c 0.01933,0.02515 0.04899,0.03788 0.07227,0.05859 0.03308,0.02944 0.06224,0.06435 0.101563,0.08399 0.03201,0.01602 0.06866,0.01653 0.103515,0.02539 0.03735,0.0095 0.072,0.02671 0.111328,0.02734 0.0028,4.3e-5 0.0051,-0.002 0.0078,-0.002 0.0028,3e-6 0.005,0.002 0.0078,0.002 0.03932,-6.3e-4 0.07398,-0.01784 0.111328,-0.02734 0.03485,-0.0089 0.07151,-0.0094 0.103516,-0.02539 0.03933,-0.01964 0.06849,-0.05454 0.101562,-0.08399 0.02328,-0.02071 0.05294,-0.03344 0.07227,-0.05859 L 13.853516,9.8476562 C 13.971214,9.7388054 14.008393,9.6185097 13.994141,9.5019531 13.998175,9.2057005 13.715333,8.9498829 13.416016,8.9980469 13.284302,8.9699638 13.142521,8.9643494 13,9 H 12 L 12.0059,5.5 C 12.010703,5.1574555 11.255672,4.9954764 11,5 Z"
     id="path1003"
     style="fill:url(#a)"
     inkscape:connector-curvature="0" />
</g>
</svg>
